X:1
T:Title
%%score { ( 1 3 ) | ( 2 4 ) }
L:1/8
M:9/8
K:Db
V:1 treble nm="Grand Piano"
V:3 treble 
V:2 bass 
V:4 bass 
V:1
 z3 z3[Q:1/4=100] FFF | A3 F3 GAB | A3 F3 DD[CE] | [DF]3 [FA]3 [FB][FA]F | E6 [Gc][GB][Gc] | %5
 [Fd]3 [FA]3 Bcd | [FA]3 F3 FFF | E3 A3 =GAB |[M:3/4] [CEA]6 |[M:3/8] AAA |[M:9/8] .e6 z3 | %11
 [Fd]3 [FA]3 z3 | .e6 z3 | [Af]6 z3 | .[Fd]6 z3 | z DD A,2 A, ddd | d3 A3 [Ge][Fd][Ec] | %17
[M:3/4] [Fd]6 |] %18
V:2
 z3 z3 [D,A,D][D,A,D][D,A,D] | [D,F,D]3 [D,A,D]3 [D,B,D][D,F,D][D,G,D] | %2
 [D,F,D]3 [D,A,D]3 [B,,F,][B,,F,][B,,F,] | [D,A,]3 [D,D]3 [D,D][D,D][F,A,D] | %4
 [A,C]6 [A,,A,][A,,A,][A,,A,] | [D,A,]3 [D,D]3 [G,G][G,A,G][G,B,G] | %6
 [D,D]3 [D,A,D]3 [D,A,D][D,A,D][D,A,D] | [E,A,C]3 [E,CE]3 [E,DE][E,CE][E,DE] |[M:3/4] A,,6 | %9
[M:3/8][K:treble] GGG |[M:9/8] G-[A,G-][A,G-] [A,G][A,DG][A,EG] [A,EG][A,DG][A,CG] | %11
 [D,A,]D,D, D,2 D,[K:treble] FFF | G-[A,G-][A,G-] [A,G][A,CG][A,CG] [A,CG][A,DF][A,CG] | %13
 [D,D]D,D, D,3[K:treble] A=GA | [D,A,]D,D, D,[D,A,][D,A,] [G,G][G,A,G][G,B,G] | %15
 [D,D]D,D, D,2 D,[K:treble] [G,B,G][G,B,G][G,=A,G] | [A,F]3 [A,DF]3[K:bass] [A,,A,][A,,A,][A,,A,] | %17
[M:3/4] [D,A,]6 |] %18
V:3
 x9 | x9 | x9 | x9 | x9 | x9 | x9 | x9 |[M:3/4] x6 |[M:3/8] x3 |[M:9/8] z CC Cdc cBA | %11
 z A,A, D2 D AAA | z CC CAA Ade | z DD D3 f_f=f | z A,A, A,[Fc][Fd] Bcd | [FA]3 [DF]3 z3 | x9 | %17
[M:3/4] x6 |] %18
V:4
 x9 | x9 | x9 | x9 | x9 | x9 | x9 | x9 |[M:3/4] x6 |[M:3/8][K:treble] x3 |[M:9/8] .[A,C]3 z3 z3 | %11
 x6[K:treble] x3 | .[A,C]3 z3 z3 | x6[K:treble] x3 | x9 | x6[K:treble] x3 | x6[K:bass] x3 | %17
[M:3/4] x6 |] %18

